src/assets/img/ico-phone.svg

<svg width="16" height="16" viewBox="0 0 16 16" fill="none" xmlns="http://www.w3.org/2000/svg">
<path d="M13.6866 6.71405C13.7059 4.45825 11.7846 2.39027 9.40381 2.10431C9.35646 2.0987 9.30488 2.09015 9.25027 2.08111C9.13241 2.06158 9.01052 2.0415 8.88754 2.0415C8.39959 2.0415 8.26916 2.38426 8.23482 2.58868C8.20143 2.78744 8.23328 2.95435 8.32933 3.08498C8.49092 3.30471 8.77524 3.34372 9.00361 3.37497C9.07055 3.38421 9.1337 3.39281 9.18657 3.40468C11.3256 3.88265 12.0459 4.6341 12.3979 6.75494C12.4064 6.80677 12.4103 6.87062 12.4144 6.93835C12.4298 7.19186 12.4618 7.71932 13.0289 7.71932H13.0289C13.0761 7.71932 13.1268 7.71524 13.1797 7.70719C13.7077 7.62694 13.6912 7.14481 13.6832 6.91316C13.681 6.84791 13.6788 6.7862 13.6844 6.74516C13.6859 6.73482 13.6866 6.72444 13.6866 6.71405Z" fill="black"/>
<path d="M8.74907 1.27642C8.81243 1.28099 8.8724 1.28537 8.92234 1.29302C12.4348 1.83319 14.0502 3.49739 14.4979 7.03737C14.5055 7.09754 14.5066 7.17093 14.5079 7.24865C14.5124 7.52522 14.5216 8.10057 15.1394 8.1125L15.1586 8.1127C15.3524 8.1127 15.5066 8.05426 15.6168 7.93888C15.8092 7.73769 15.7957 7.43881 15.7849 7.19861C15.7823 7.13968 15.7797 7.08417 15.7804 7.03558C15.8251 3.41511 12.6911 0.132075 9.07389 0.00998758C9.05889 0.00949068 9.04458 0.0102857 9.03012 0.012323C9.02301 0.0133665 9.00984 0.0146584 8.98728 0.0146584C8.95121 0.0146584 8.90684 0.0115279 8.85978 0.00834783C8.80289 0.00447205 8.73839 0 8.673 0C8.09695 0 7.98743 0.409441 7.97342 0.653516C7.94112 1.21759 8.48681 1.25729 8.74907 1.27642Z" fill="black"/>
<path d="M14.3285 11.6127C14.2538 11.5556 14.1766 11.4966 14.1043 11.4384C13.7208 11.1297 13.3128 10.8453 12.9182 10.5701C12.8364 10.5131 12.7545 10.456 12.6729 10.3988C12.1674 10.0437 11.713 9.8712 11.2837 9.8712C10.7055 9.8712 10.2013 10.1907 9.78523 10.8207C9.60088 11.1 9.37723 11.2358 9.1016 11.2358C8.93862 11.2358 8.75342 11.1893 8.55124 11.0975C6.91979 10.3577 5.75482 9.2234 5.08863 7.72611C4.76659 7.00243 4.87099 6.52939 5.43775 6.14439C5.75959 5.92596 6.35864 5.5193 6.31621 4.74057C6.26816 3.85624 4.31695 1.19542 3.49484 0.893213C3.14677 0.765213 2.78105 0.76402 2.4059 0.890232C1.4608 1.20795 0.782593 1.76591 0.444407 2.5037C0.117599 3.21659 0.132357 4.05366 0.48709 4.92442C1.51258 7.44198 2.95437 9.63696 4.77256 11.4483C6.55223 13.2214 8.73961 14.6738 11.2739 15.7651C11.5023 15.8633 11.7419 15.917 11.9169 15.9561C11.9765 15.9695 12.028 15.9809 12.0655 15.9912C12.0861 15.9968 12.1074 15.9998 12.1287 16L12.1487 16.0001C12.1488 16.0001 12.1487 16.0001 12.1488 16.0001C13.3408 16.0001 14.772 14.911 15.2115 13.6692C15.5966 12.5819 14.8935 12.0445 14.3285 11.6127Z" fill="black"/>
<path d="M9.27653 4.15229C9.07245 4.15746 8.64776 4.16799 8.49874 4.60054C8.42902 4.80268 8.43737 4.97818 8.52358 5.12218C8.65009 5.33346 8.89248 5.39821 9.11295 5.43373C9.9125 5.56203 10.3231 6.00417 10.4053 6.82504C10.4434 7.2078 10.7012 7.47508 11.0321 7.47508H11.0322C11.0566 7.47508 11.0816 7.47364 11.1065 7.47061C11.5045 7.42325 11.6974 7.13083 11.68 6.60154C11.6864 6.04914 11.3973 5.42201 10.9056 4.92248C10.4122 4.42141 9.8175 4.13922 9.27653 4.15229Z" fill="black"/>
</svg>

<svg width="16" height="16" fill="none" xmlns="http://www.w3.org/2000/svg"><path d="M13.687 6.714c.019-2.256-1.902-4.324-4.283-4.61-.048-.005-.1-.014-.154-.023-.118-.02-.24-.04-.362-.04-.488 0-.619.343-.653.548-.034.198-.002.365.094.496.162.22.446.259.675.29.067.01.13.018.183.03 2.139.478 2.859 1.23 3.21 3.35.01.052.013.116.017.183.016.254.048.781.615.781.047 0 .098-.004.15-.012.529-.08.512-.562.504-.794-.002-.065-.004-.127.001-.168a.216.216 0 00.003-.03z" fill="#000"/><path d="M8.75 1.276c.062.005.122.01.172.017 3.513.54 5.128 2.204 5.576 5.744.008.06.009.134.01.212.004.276.014.852.631.864h.02c.193 0 .348-.059.458-.174.192-.201.179-.5.168-.74-.003-.06-.005-.115-.005-.163.045-3.62-3.089-6.904-6.706-7.026a.25.25 0 00-.044.002.303.303 0 01-.043.003c-.036 0-.08-.003-.127-.007C8.803.004 8.738 0 8.673 0c-.576 0-.686.41-.7.654-.032.564.514.603.776.622zM14.329 11.613c-.075-.057-.152-.116-.225-.175-.383-.308-.791-.593-1.186-.868l-.245-.171c-.506-.355-.96-.528-1.39-.528-.577 0-1.082.32-1.498.95-.184.279-.408.415-.683.415-.163 0-.349-.047-.55-.139-1.632-.74-2.797-1.874-3.463-3.37-.322-.725-.218-1.198.349-1.583.322-.218.92-.625.878-1.403-.048-.885-1.999-3.546-2.821-3.848A1.602 1.602 0 002.405.89c-.944.318-1.622.876-1.96 1.614-.327.713-.313 1.55.042 2.42 1.026 2.518 2.467 4.713 4.286 6.524 1.78 1.773 3.967 3.226 6.5 4.317.23.098.469.152.644.191.06.014.111.025.149.035a.25.25 0 00.063.009h.02c1.192 0 2.623-1.089 3.063-2.33.385-1.088-.319-1.626-.883-2.057zM9.277 4.152c-.205.005-.63.016-.778.449-.07.202-.062.377.025.521.126.211.368.276.589.312.8.128 1.21.57 1.292 1.391.038.383.296.65.627.65.025 0 .05-.001.075-.004.398-.048.59-.34.573-.87.006-.552-.283-1.179-.774-1.679-.494-.5-1.088-.783-1.63-.77z" fill="#000"/></svg>
